app/assets/fonts/src/MYS.svg

<?xml version="1.0" encoding="utf-8"?>
<!-- Generated by IcoMoon.io -->
<!DOCTYPE svg PUBLIC "-//W3C//DTD SVG 1.1//EN" "http://www.w3.org/Graphics/SVG/1.1/DTD/svg11.dtd">
<svg version="1.1" xmlns="http://www.w3.org/2000/svg" xmlns:xlink="http://www.w3.org/1999/xlink" width="1019" height="1024" viewBox="0 0 1019 1024"><g id="icomoon-ignore">
</g>
<path d="M506.781 1023.999l-45.030-312.572-182.292 260.715 98.37-300.687-280.131 157.697 222.29-229.248-322.488 23.438 302.183-112.41-300.974-115.451 322.223 26.702-219.843-231.486 278.444 160.52-95.174-301.665 179.516 262.547 48.345-312.098 45.030 312.572 182.292-260.715-98.37 300.687 280.131-157.697-222.29 229.248 322.488-23.438-302.183 112.41 300.974 115.451-322.223-26.702 219.843 231.486-278.444-160.52 95.174 301.665-179.516-262.547z"></path>
</svg>

<svg xmlns="http://www.w3.org/2000/svg" width="1019" height="1024" viewBox="0 0 1019 1024"><path d="M506.78 1024l-45.03-312.573-182.29 260.715 98.37-300.687L97.697 829.152l222.29-229.248L-2.5 623.342l302.183-112.41L-1.29 395.482l322.222 26.7L101.09 190.698l278.443 160.52L284.36 49.552 463.874 312.1 512.22 0l45.03 312.573L739.542 51.858l-98.37 300.687 280.13-157.697-222.29 229.248 322.49-23.438-302.184 112.41 300.974 115.45-322.223-26.7 219.84 231.484-278.444-160.52 95.174 301.665L555.126 711.9z"/></svg>
